svg/u1f9d9_200d_2642.svg

<svg viewBox="0 0 128 128" xmlns="http://www.w3.org/2000/svg">
  <linearGradient id="hat_x5F_back_2_" gradientTransform="matrix(1 0 0 -1 0 130)" gradientUnits="userSpaceOnUse" x1="55.464" x2="55.464" y1="90.8072" y2="56.1081">
    <stop offset="5.450581e-05" stop-color="#05080F"/>
    <stop offset="0.1125" stop-color="#070A15"/>
    <stop offset="0.2637" stop-color="#0B1026"/>
    <stop offset="0.4371" stop-color="#131A42"/>
    <stop offset="0.6268" stop-color="#1D286A"/>
    <stop offset="0.8276" stop-color="#2B399B"/>
    <stop offset="1" stop-color="#384ACC"/>
  </linearGradient>
  <ellipse id="hat_x5F_back_1_" cx="55.46" cy="56.71" fill="url(#hat_x5F_back_2_)" rx="49.85" ry="18.32"/>
  <g id="robe_1_">
    <linearGradient id="shirt_2_" gradientTransform="matrix(1 0 0 -1 0 130)" gradientUnits="userSpaceOnUse" x1="55.306" x2="55.306" y1="34.0131" y2="-7.8038">
      <stop offset="0" stop-color="#384ACC"/>
      <stop offset="0.216" stop-color="#3548BF"/>
      <stop offset="0.6146" stop-color="#2F449D"/>
      <stop offset="0.9606" stop-color="#283F7A"/>
    </linearGradient>
    <path id="shirt_1_" d="M104.62,124.03v-2.98c0-16.79-24.99-25.09-49.31-25.06 C31.14,96.02,6,103.27,6,121.04v2.98H104.62z" fill="url(#shirt_2_)"/>
    <g id="robe_3_">
      <g>
        <linearGradient id="SVGID_1_" gradientTransform="matrix(1 0 0 -1 0 130)" gradientUnits="userSpaceOnUse" x1="96.2588" x2="120.7042" y1="16.9275" y2="16.9275">
          <stop offset="0" stop-color="#384ACC"/>
          <stop offset="0.216" stop-color="#3548BF"/>
          <stop offset="0.6146" stop-color="#2F449D"/>
          <stop offset="0.9606" stop-color="#283F7A"/>
        </linearGradient>
        <path d="M112.3,102.32c-0.59-0.31-1.31-0.11-1.65,0.46c-1.88,3.15-5.56,5.48-9.12,7.74 c-1.64,1.04-3.32,2.11-4.78,3.23c-0.45,0.35-0.61,0.96-0.38,1.48l3.83,8.73h1.36h2.49h13.92h1.3h1.25 C121.03,118.84,121.16,107.03,112.3,102.32z" fill="url(#SVGID_1_)"/>
      </g>
      <polygon fill="#F9F722" points="33.4,114.54 33.9,117.2 36.37,118.3 33.99,119.59 33.71,122.28 31.75,120.43 29.1,120.99 30.26,118.55 28.91,116.21 31.59,116.56 "/>
      <polygon fill="#F9F722" points="17.12,109.56 19.27,111.76 22.3,111.25 20.87,113.97 22.3,116.69 19.27,116.17 17.12,118.38 16.68,115.33 13.92,113.97 16.68,112.61 "/>
      <polygon fill="#F9F722" points="79.25,107.19 79.39,110.52 82.21,112.29 79.09,113.45 78.27,116.68 76.2,114.07 72.88,114.3 74.72,111.52 73.48,108.43 76.69,109.32 "/>
    </g>
  </g>
  <g id="ears_1_">
    <path id="ears_3_" d="M83.31,49.28h-7.23H36.92h-7.23c-5.78,0-10.51,5.04-10.51,11.2s4.73,11.2,10.51,11.2 h7.23h39.16h7.23c5.78,0,10.51-5.04,10.51-11.2S89.1,49.28,83.31,49.28z" fill="#E59600"/>
  </g>
  <g id="head_1_">
    <path id="head_3_" d="M56.09,19.38L56.09,19.38L56.09,19.38c-17.08,0-32.89,9.3-32.89,35.58 c0,26.14,16.29,39.06,32.89,39.06s32.89-12.92,32.89-39.06C88.98,28.68,73.17,19.38,56.09,19.38z" fill="#FFCA28"/>
  </g>
  <g id="beard_2_">
    <linearGradient id="SVGID_2_" gradientTransform="matrix(1 0 0 -1 0 130)" gradientUnits="userSpaceOnUse" x1="56.5048" x2="56.5048" y1="75.0251" y2="-2.0876">
      <stop offset="0.4878" stop-color="#F5F5F5"/>
      <stop offset="0.8314" stop-color="#BDBDBD"/>
    </linearGradient>
    <path d="M29.18,32.89c-3.62,0-6.56,2.94-6.56,6.56c0.01,2.97,0.08,7.12,0.34,13.23 c0.2,4.83-1.9,16.18-3.59,21.27c-2.55,7.71-2.15,17.15,1.44,24.43c3.22,6.52,18.76,16.89,27.94,21.99 c3.5,1.95,11.66,1.97,15.18,0.06c9.03-4.9,24.1-14.73,27.56-20.93c4.24-7.59,4.86-17.66,2.13-25.91 c-1.68-5.08-3.71-16.19-3.55-20.9c0.22-6.19,0.23-10.36,0.19-13.33c-0.05-3.59-2.97-6.46-6.56-6.46H29.18z M83.66,55.88 c0,12.06-3.41,18.24-11.43,18.24c-8.39,0-9.82-2.46-16.05-2.46c-6.24,0-7.73,2.46-15.85,2.46c-7.32,0-11.13-8.49-11.13-18.56 s-1.02-19.68,1.75-19.18c4.27,0.78,17.65,1.73,25.16,1.73c7.21,0,20.4-0.88,24.75-1.64C83.83,35.96,83.66,43.81,83.66,55.88z" fill="url(#SVGID_2_)"/>
  </g>
  <radialGradient id="beard_3_" cx="56.5042" cy="52.4536" gradientTransform="matrix(1 0 0 -1.2143 0 141.0632)" gradientUnits="userSpaceOnUse" r="40.1754">
    <stop offset="0.6895" stop-color="#FFFFFF" stop-opacity="0"/>
    <stop offset="1" stop-color="#BDBDBD"/>
  </radialGradient>
  <path id="beard_1_" d="M93.63,73.58c-1.68-5.08-3.71-16.18-3.55-20.9c0.22-6.19,0.23-10.36,0.19-13.33 c-0.05-3.59-2.97-6.46-6.55-6.46h-0.06v22.99c0,12.06-3.41,18.23-11.43,18.23c-8.4,0-9.83-2.46-16.06-2.46 c-6.24,0-7.72,2.46-15.84,2.46c-7.33,0-11.14-8.48-11.14-18.55c0-7.07-0.5-13.91,0.16-17.19v-5.48h-0.17 c-3.62,0-6.56,2.93-6.55,6.56c0,2.96,0.07,7.12,0.33,13.23c0.21,4.83-1.9,16.18-3.59,21.27c-2.55,7.71-2.15,17.15,1.44,24.43 c3.22,6.52,18.76,16.89,27.94,21.99c3.5,1.95,11.66,1.97,15.18,0.06c9.03-4.9,24.1-14.73,27.57-20.93 C95.74,91.91,96.36,81.84,93.63,73.58z" fill="url(#beard_3_)"/>
  <path id="mouth_1_" d="M64.14,76.16c-3.12,1.86-13.37,1.86-16.5,0c-1.79-1.07-3.63,0.57-2.88,2.2 c0.73,1.6,6.32,5.32,11.16,5.32S66.27,79.96,67,78.36C67.75,76.73,65.94,75.1,64.14,76.16z" fill="#795548"/>
  <g id="eyebrows_x5F_white">
    <path d="M79.76,50.38L79.76,50.38c0-0.01-2.25-3.67-7.48-3.67c-5.23,0-7.49,3.66-7.49,3.66l0,0.01 c-0.18,0.26-0.3,0.58-0.3,0.93c0,0.88,0.69,1.6,1.55,1.6c0.18,0,0.61-0.13,0.65-0.15c3.13-1.33,5.59-1.34,5.59-1.34 s2.43,0.01,5.57,1.34c0.04,0.02,0.47,0.15,0.65,0.15c0.86,0,1.55-0.72,1.55-1.6C80.05,50.96,79.94,50.64,79.76,50.38z" fill="#FFFFFF"/>
    <path d="M47.88,50.38L47.88,50.38c0.01-0.01-2.25-3.67-7.48-3.67s-7.49,3.66-7.49,3.66l0.01,0.01 c-0.18,0.26-0.3,0.58-0.3,0.93c0,0.88,0.69,1.6,1.55,1.6c0.18,0,0.61-0.13,0.65-0.15c3.13-1.33,5.59-1.34,5.59-1.34 s2.44,0.01,5.57,1.34c0.04,0.02,0.47,0.15,0.65,0.15c0.86,0,1.55-0.72,1.55-1.6C48.18,50.96,48.06,50.64,47.88,50.38z" fill="#FFFFFF"/>
  </g>
  <g id="hat_1_">
    <g>
      <linearGradient id="SVGID_3_" gradientTransform="matrix(1 0 0 -1 0 130)" gradientUnits="userSpaceOnUse" x1="58.1389" x2="57.7181" y1="125.9875" y2="107.4699">
        <stop offset="0.3696" stop-color="#3649BF"/>
        <stop offset="1" stop-color="#2C4585"/>
      </linearGradient>
      <path d="M74.15,17.45c0.54-1.04,11.23,1.32,12.35-0.44c1.17-1.85-4.65-9.64-17.2-12.09 c-4.22-0.83-9.96-1.95-17.09,0.41c-4.2,1.39-22.87,8.1-27,32.75c-0.01,0.06,64.32,0.24,64.32,0.24 C86.95,29.75,73.61,18.49,74.15,17.45z" fill="url(#SVGID_3_)"/>
    </g>
    <linearGradient id="SVGID_4_" gradientTransform="matrix(1 0 0 -1 0 130)" gradientUnits="userSpaceOnUse" x1="55.8605" x2="55.8605" y1="108.0865" y2="71.2712">
      <stop offset="0.2075" stop-color="#384ACC"/>
      <stop offset="1" stop-color="#1D3678"/>
    </linearGradient>
    <path d="M105.82,54.92c-6.7-28.45-46.53-40.31-73.16-28.41c-8.47,3.54-17.15,9.65-22.75,18.47 c-1.84,2.59-8.84,17.02,1.55,13.08C68.95,24.43,106.18,70.86,105.82,54.92z" fill="url(#SVGID_4_)"/>
  </g>
  <path id="nose_1_" d="M59.67,68.38c-0.1-0.04-0.21-0.07-0.32-0.08h-6.94c-0.11,0.01-0.21,0.04-0.32,0.08 c-0.63,0.25-0.97,0.91-0.68,1.6s1.68,2.64,4.46,2.64s4.17-1.95,4.46-2.64C60.64,69.29,60.3,68.64,59.67,68.38z" fill="#E59600"/>
  <g id="eyes_1_">
    <ellipse cx="39.69" cy="59.26" fill="#404040" rx="4.83" ry="5.01"/>
    <ellipse cx="72.32" cy="59.26" fill="#404040" rx="4.83" ry="5.01"/>
  </g>
  <g id="wand">
    <path d="M112.17,81.48l-3.02,2.73l2.42,6.03l7.63-0.11l4.14-11.68l-13.25-11.24L95.5,78.62l7.36,15.37 c-0.55,2.18-3.66,14.45-4.49,17.74c-0.73,2.89-1.71,7.54-2.64,12.17h0.97h0.97h3.82h1h1l8.85-28.81l-7.86-14.19l5.43-3.64 l5.41,2.39l-0.14,2.44L112.17,81.48z" fill="#CF8900"/>
  </g>
  <g id="hand">
    <linearGradient id="hand_2_" gradientTransform="matrix(1 0 0 -1 0 130)" gradientUnits="userSpaceOnUse" x1="89.2016" x2="112.7829" y1="27.949" y2="12.1816">
      <stop offset="0.5" stop-color="#FFCA28"/>
      <stop offset="1" stop-color="#FFB300"/>
    </linearGradient>
    <path id="hand_1_" d="M115.57,111.13c-0.14-1.41-0.63-2.76-1.1-3.89c-1.46-3.57-3.14-6.34-6.94-9.14 c-3.86-2.85-8.11-3.42-10.03-3.11c-2.15,0.35-3.52,1.19-4.08,2.5c-0.43,1-0.25,2.03,0.01,2.79c-1.1,0.37-2.59,1.12-3.07,2.47 c-0.56,1.58-0.1,2.87,0.56,3.74c-0.94,0.6-2.13,1.55-2.47,2.74c-0.45,1.58,1.02,3.35,2,4.31c-0.48,0.64-1.06,1.51-1.19,2.14 c-0.68,3.33,3.66,5.21,6.33,5.79c0.41,0.09,0.83-0.1,1.05-0.46l0.93-1.62c3.43,1.06,8.45,2.48,10.54,2.48 c0.28,0,0.51-0.03,0.68-0.08c1.92-0.67,3.17-2.23,4.27-3.61c0.17-0.21,0.34-0.43,0.51-0.64 C115.07,115.73,115.79,113.39,115.57,111.13z" fill="url(#hand_2_)"/>
  </g>
</svg>

<svg viewBox="0 0 128 128" xmlns="http://www.w3.org/2000/svg">
  <defs>
    <radialGradient id="beard_3_" cx="56.5042" cy="-63.714727" gradientTransform="matrix(1 0 0 -1.2143 0 0)" gradientUnits="userSpaceOnUse" r="40.1754">
      <stop offset="0.6895" stop-color="#FFFFFF" stop-opacity="0"/>
      <stop offset="1" stop-color="#BDBDBD"/>
    </radialGradient>
    <linearGradient id="hat_x5F_back_2_" gradientTransform="matrix(1 0 0 -1 0 0)" gradientUnits="userSpaceOnUse" x1="55.464" x2="55.464" y1="-39.1928" y2="-73.8919">
      <stop offset="5.450581e-05" stop-color="#05080F"/>
      <stop offset="0.1125" stop-color="#070A15"/>
      <stop offset="0.2637" stop-color="#0B1026"/>
      <stop offset="0.4371" stop-color="#131A42"/>
      <stop offset="0.6268" stop-color="#1D286A"/>
      <stop offset="0.8276" stop-color="#2B399B"/>
      <stop offset="1" stop-color="#384ACC"/>
    </linearGradient>
    <linearGradient id="shirt_2_" gradientTransform="matrix(1 0 0 -1 0 0)" gradientUnits="userSpaceOnUse" x1="55.306" x2="55.306" y1="-95.9869" y2="-137.8038">
      <stop offset="0" stop-color="#384ACC"/>
      <stop offset="0.216" stop-color="#3548BF"/>
      <stop offset="0.6146" stop-color="#2F449D"/>
      <stop offset="0.9606" stop-color="#283F7A"/>
    </linearGradient>
    <linearGradient id="SVGID_2_" gradientTransform="matrix(1 0 0 -1 0 0)" gradientUnits="userSpaceOnUse" x1="56.5048" x2="56.5048" y1="-54.9749" y2="-132.0876">
      <stop offset="0.4878" stop-color="#F5F5F5"/>
      <stop offset="0.8314" stop-color="#BDBDBD"/>
    </linearGradient>
    <linearGradient id="SVGID_4_" gradientTransform="matrix(1 0 0 -1 0 0)" gradientUnits="userSpaceOnUse" x1="55.8605" x2="55.8605" y1="-21.9135" y2="-58.7288">
      <stop offset="0.2075" stop-color="#384ACC"/>
      <stop offset="1" stop-color="#1D3678"/>
    </linearGradient>
    <linearGradient id="hand_2_" gradientTransform="matrix(1 0 0 -1 0 0)" gradientUnits="userSpaceOnUse" x1="89.2016" x2="112.7829" y1="-102.051" y2="-117.8184">
      <stop offset="0.5" stop-color="#FFCA28"/>
      <stop offset="1" stop-color="#FFB300"/>
    </linearGradient>
    <linearGradient id="SVGID_3_" gradientTransform="matrix(1 0 0 -1 0 0)" gradientUnits="userSpaceOnUse" x1="58.1389" x2="57.7181" y1="-4.0125" y2="-22.5301">
      <stop offset="0.3696" stop-color="#3649BF"/>
      <stop offset="1" stop-color="#2C4585"/>
    </linearGradient>
    <linearGradient id="SVGID_1_" gradientTransform="matrix(1 0 0 -1 0 0)" gradientUnits="userSpaceOnUse" x1="96.2588" x2="120.7042" y1="-113.0725" y2="-113.0725">
      <stop offset="0" stop-color="#384ACC"/>
      <stop offset="0.216" stop-color="#3548BF"/>
      <stop offset="0.6146" stop-color="#2F449D"/>
      <stop offset="0.9606" stop-color="#283F7A"/>
    </linearGradient>
  </defs>
  <path id="hat_x5F_back_1_" d="M105.31,56.71 A49.85 18.32 0 1 1 5.61,56.71 A49.85 18.32 0 1 1 105.31,56.71 Z" fill="url(#hat_x5F_back_2_)"/>
  <path id="shirt_1_" d="M104.62,124.03 L104.62,121.05 C104.62,104.26 79.63,95.96 55.31,95.99 C31.14,96.02 6,103.27 6,121.04 L6,124.02 L104.62,124.02 Z" fill="url(#shirt_2_)"/>
  <path d="M112.3,102.32 C111.71,102.01 110.99,102.21 110.65,102.78 C108.77,105.93 105.09,108.26 101.53,110.52 C99.89,111.56 98.21,112.63 96.75,113.75 C96.3,114.1 96.14,114.71 96.37,115.23 L100.2,123.96 L101.56,123.96 L104.05,123.96 L117.97,123.96 L119.27,123.96 L120.52,123.96 C121.03,118.84 121.16,107.03 112.3,102.32 Z" fill="url(#SVGID_1_)"/>
  <path d="M33.4,114.54 L33.9,117.2 L36.37,118.3 L33.99,119.59 L33.71,122.28 L31.75,120.43 L29.1,120.99 L30.26,118.55 L28.91,116.21 L31.59,116.56 Z" fill="#F9F722"/>
  <path d="M17.12,109.56 L19.27,111.76 L22.3,111.25 L20.87,113.97 L22.3,116.69 L19.27,116.17 L17.12,118.38 L16.68,115.33 L13.92,113.97 L16.68,112.61 Z" fill="#F9F722"/>
  <path d="M79.25,107.19 L79.39,110.52 L82.21,112.29 L79.09,113.45 L78.27,116.68 L76.2,114.07 L72.88,114.3 L74.72,111.52 L73.48,108.43 L76.69,109.32 Z" fill="#F9F722"/>
  <path id="ears_3_" d="M83.31,49.28 L76.08,49.28 L36.92,49.28 L29.69,49.28 C23.91,49.28 19.18,54.32 19.18,60.48 C19.18,66.64 23.91,71.68 29.69,71.68 L36.92,71.68 L76.08,71.68 L83.31,71.68 C89.09,71.68 93.82,66.64 93.82,60.48 C93.82,54.32 89.1,49.28 83.31,49.28 Z" fill="#E59600"/>
  <path id="head_3_" d="M56.09,19.38 L56.09,19.38 L56.09,19.38 C39.01,19.38 23.2,28.68 23.2,54.96 C23.2,81.1 39.49,94.02 56.09,94.02 C72.69,94.02 88.98,81.1 88.98,54.96 C88.98,28.68 73.17,19.38 56.09,19.38 Z" fill="#FFCA28"/>
  <path d="M29.18,32.89 C25.56,32.89 22.62,35.83 22.62,39.45 C22.63,42.42 22.7,46.57 22.96,52.68 C23.16,57.51 21.06,68.86 19.37,73.95 C16.82,81.66 17.22,91.1 20.81,98.38 C24.03,104.9 39.57,115.27 48.75,120.37 C52.25,122.32 60.41,122.34 63.93,120.43 C72.96,115.53 88.03,105.7 91.49,99.5 C95.73,91.91 96.35,81.84 93.62,73.59 C91.94,68.51 89.91,57.4 90.07,52.69 C90.29,46.5 90.3,42.33 90.26,39.36 C90.21,35.77 87.29,32.9 83.7,32.9 L29.18,32.9 Z M83.66,55.88 C83.66,67.94 80.25,74.12 72.23,74.12 C63.84,74.12 62.41,71.66 56.18,71.66 C49.94,71.66 48.45,74.12 40.33,74.12 C33.01,74.12 29.2,65.63 29.2,55.56 C29.2,45.49 28.18,35.88 30.95,36.38 C35.22,37.16 48.6,38.11 56.11,38.11 C63.32,38.11 76.51,37.23 80.86,36.47 C83.83,35.96 83.66,43.81 83.66,55.88 Z" fill="url(#SVGID_2_)"/>
  <path id="beard_1_" d="M93.63,73.58 C91.95,68.5 89.92,57.4 90.08,52.68 C90.3,46.49 90.31,42.32 90.27,39.35 C90.22,35.76 87.3,32.89 83.72,32.89 L83.66,32.89 L83.66,55.88 C83.66,67.94 80.25,74.11 72.23,74.11 C63.83,74.11 62.4,71.65 56.17,71.65 C49.93,71.65 48.45,74.11 40.33,74.11 C33,74.11 29.19,65.63 29.19,55.56 C29.19,48.49 28.69,41.65 29.35,38.37 L29.35,32.89 L29.18,32.89 C25.56,32.89 22.62,35.82 22.63,39.45 C22.63,42.41 22.7,46.57 22.96,52.68 C23.17,57.51 21.06,68.86 19.37,73.95 C16.82,81.66 17.22,91.1 20.81,98.38 C24.03,104.9 39.57,115.27 48.75,120.37 C52.25,122.32 60.41,122.34 63.93,120.43 C72.96,115.53 88.03,105.7 91.5,99.5 C95.74,91.91 96.36,81.84 93.63,73.58 Z" fill="url(#beard_3_)"/>
  <path id="mouth_1_" d="M64.14,76.16 C61.02,78.02 50.77,78.02 47.64,76.16 C45.85,75.09 44.01,76.73 44.76,78.36 C45.49,79.96 51.08,83.68 55.92,83.68 C60.76,83.68 66.27,79.96 67,78.36 C67.75,76.73 65.94,75.1 64.14,76.16 Z" fill="#795548"/>
  <path d="M79.76,50.38 L79.76,50.38 C79.76,50.37 77.51,46.71 72.28,46.71 C67.05,46.71 64.79,50.37 64.79,50.37 L64.79,50.38 C64.61,50.64 64.49,50.96 64.49,51.31 C64.49,52.19 65.18,52.91 66.04,52.91 C66.22,52.91 66.65,52.78 66.69,52.76 C69.82,51.43 72.28,51.42 72.28,51.42 C72.28,51.42 74.71,51.43 77.85,52.76 C77.89,52.78 78.32,52.91 78.5,52.91 C79.36,52.91 80.05,52.19 80.05,51.31 C80.05,50.96 79.94,50.64 79.76,50.38 Z" fill="#FFFFFF"/>
  <path d="M47.88,50.38 L47.88,50.38 C47.89,50.37 45.63,46.71 40.4,46.71 C35.17,46.71 32.91,50.37 32.91,50.37 L32.92,50.38 C32.74,50.64 32.62,50.96 32.62,51.31 C32.62,52.19 33.31,52.91 34.17,52.91 C34.35,52.91 34.78,52.78 34.82,52.76 C37.95,51.43 40.41,51.42 40.41,51.42 C40.41,51.42 42.85,51.43 45.98,52.76 C46.02,52.78 46.45,52.91 46.63,52.91 C47.49,52.91 48.18,52.19 48.18,51.31 C48.18,50.96 48.06,50.64 47.88,50.38 Z" fill="#FFFFFF"/>
  <path d="M74.15,17.45 C74.69,16.41 85.38,18.77 86.5,17.01 C87.67,15.16 81.85,7.37 69.3,4.92 C65.08,4.09 59.34,2.97 52.21,5.33 C48.01,6.72 29.34,13.43 25.21,38.08 C25.2,38.14 89.53,38.32 89.53,38.32 C86.95,29.75 73.61,18.49 74.15,17.45 Z" fill="url(#SVGID_3_)"/>
  <path d="M105.82,54.92 C99.12,26.47 59.29,14.61 32.66,26.51 C24.19,30.05 15.51,36.16 9.91,44.98 C8.07,47.57 1.07,62 11.46,58.06 C68.95,24.43 106.18,70.86 105.82,54.92 Z" fill="url(#SVGID_4_)"/>
  <path id="nose_1_" d="M59.67,68.38 C59.57,68.34 59.46,68.31 59.35,68.3 L52.41,68.3 C52.3,68.31 52.2,68.34 52.09,68.38 C51.46,68.63 51.12,69.29 51.41,69.98 C51.7,70.67 53.09,72.62 55.87,72.62 C58.65,72.62 60.04,70.67 60.33,69.98 C60.64,69.29 60.3,68.64 59.67,68.38 Z" fill="#E59600"/>
  <path d="M44.52,59.26 A4.83 5.01 0 1 1 34.86,59.26 A4.83 5.01 0 1 1 44.52,59.26 Z" fill="#404040"/>
  <path d="M77.15,59.26 A4.83 5.01 0 1 1 67.49,59.26 A4.83 5.01 0 1 1 77.15,59.26 Z" fill="#404040"/>
  <path d="M112.17,81.48 L109.15,84.21 L111.57,90.24 L119.2,90.13 L123.34,78.45 L110.09,67.21 L95.5,78.62 L102.86,93.99 C102.31,96.17 99.2,108.44 98.37,111.73 C97.64,114.62 96.66,119.27 95.73,123.9 L96.7,123.9 L97.67,123.9 L101.49,123.9 L102.49,123.9 L103.49,123.9 L112.34,95.09 L104.48,80.9 L109.91,77.26 L115.32,79.65 L115.18,82.09 L112.17,81.48 Z" fill="#CF8900"/>
  <path id="hand_1_" d="M115.57,111.13 C115.43,109.72 114.94,108.37 114.47,107.24 C113.01,103.67 111.33,100.9 107.53,98.1 C103.67,95.25 99.42,94.68 97.5,94.99 C95.35,95.34 93.98,96.18 93.42,97.49 C92.99,98.49 93.17,99.52 93.43,100.28 C92.33,100.65 90.84,101.4 90.36,102.75 C89.8,104.33 90.26,105.62 90.92,106.49 C89.98,107.09 88.79,108.04 88.45,109.23 C88,110.81 89.47,112.58 90.45,113.54 C89.97,114.18 89.39,115.05 89.26,115.68 C88.58,119.01 92.92,120.89 95.59,121.47 C96,121.56 96.42,121.37 96.64,121.01 L97.57,119.39 C101,120.45 106.02,121.87 108.11,121.87 C108.39,121.87 108.62,121.84 108.79,121.79 C110.71,121.12 111.96,119.56 113.06,118.18 C113.23,117.97 113.4,117.75 113.57,117.54 C115.07,115.73 115.79,113.39 115.57,111.13 Z" fill="url(#hand_2_)"/>
</svg>
